X: 11171
T: Duncan The Gauger
R: jig
M: 6/8
K: Amixolydian
|:ede Aee|deA ede|Bdd GBB|B/c/dG B/c/de|
ede Aee|deA ede|Bdd GBB|B/c/de A3:|
|:dea gee|deA ede|e2 a gee|B/c/dG B/c/de|
e2 a gee|deA ede|Bdd GBB|B/c/de A3:|

